X:1
T:I Praise the King with All My Verses
T:Tune: Johann B. König, 1738 Text under copyright; for copyrighted material see Psalter Hymnal 45
T:98 98 88 O DASS ICHT TAUSEND www.hymnary.org/text/i_praise_the_king_with_all_my_verses 
T:I Praise the King with All My Verses
T: This music is in the public domain. You may freely use this score for personal and congregational worship. If you reproduce the score, please credit Hymnary.org as the source. 
T: This music is in the public domain. You may freely use this score for personal and congregational worship. If you reproduce the score, please credit Hymnary.org as the source. 
Z:This music is in the public domain. You may freely use this score for personal and congregational worship. If you reproduce the score, please credit Hymnary.org as the source.
%%score ( 1 2 ) ( 3 4 )
L:1/8
M:4/4
K:F
V:1 treble nm="SOPRANO ALTO" snm="S. A."
V:2 treble 
V:3 bass nm="TENOR BASS" snm="T. B."
V:4 bass 
V:1
 c2 A2 c2 d2 c2 B2 A2 G4 F2 A2 G2 F2 | G2 A2 B2 A2 G4 | z2 c2 A2 c2 d2 c2 B2 A2 | %3
 G4 F2 A2 G2 F2 G2 A2 B2 A2 G4 | z2 G2 G2 G2 |1 A2 c2 c2 =B2 c4 | z2 c2 A2 F2 d2 B2 A4 G4 F6 |] %7
V:2
 F2 F2 F2 F2 E2 F2 F2 (F2 E2) F2 F2 E2 D2 | E2 F2 F2 F2 E4 | x2 G2 F2 F2 F2 E2 F2 F2 | %3
 (F2 E2) F2 F2 E2 D2 E2 F2 F2 F2 E4 | x2 C2 D2 E2 |1 F2 G2 D2 D2 E4 | %6
 x2 C2 C2 D2 F2 G2 F4 (F2 E2) C6 |] %7
V:3
 A,2 C2 C2 B,2 G,2 D2 C2 C4 A,2 C2 C2 A,2 | B,2 C2 D2 C2 C4 | z2 C2 C2 C2 B,2 G,2 D2 C2 | %3
 C4 A,2 C2 C2 A,2 B,2 C2 D2 C2 C4 | z2 E,2 G,2 C2 |1 C2 C2 A,2 G,2 G,4 | %6
 z2 G,2 A,2 A,2 B,2 D2 C4 C4 A,6 |] %7
V:4
 F,2 F,2 A,,2 B,,2 C,2 D,2 F,2 C,4 F,,2 F,2 C,2 D,2 | G,2 F,2 B,,2 F,2 C,4 | %2
 x2 E,2 F,2 A,,2 B,,2 C,2 D,2 F,2 | C,4 F,,2 F,2 C,2 D,2 G,2 F,2 B,,2 F,2 C,4 | x2 C,2 =B,,2 C,2 |1 %5
 F,2 E,2 F,2 G,2 C,4 | x2 E,2 F,2 D,2 B,,2 G,,2 (A,,2 B,,2) C,4 F,,6 |] %7

